X:1
T:Miss Campell of Sheerness
M:6/8
L:1/8
Q:80
C:Trad.
S:Jig
K:HP
|: {gBd}B2e{A}efg | \
{a}fae{gf}g2e | \
{gBd}B2e{A}efg |
{a}ffe{g}dB{G}A | \
{g}Be{A}e{g}efg | \
{a}fae{gf}g2e |
{g}ede{gef}e2d | \
{g}ffe{g}dB{G}A :: \
{g}BGB{g}BdB |
{g}Bgf{gef}e2d | \
{g}BGB{Gdc}d2B | \
{g}ffe{g}dB{G}A |
{g}BGB{g}BdB | \
{g}Bgf{g}efg | \
a2{GdG}a{gf}g2f |
{g}ffe{g}dB{G}A :|
